icon-svg/echo-dot-gen-4.svg

<svg xmlns="http://www.w3.org/2000/svg" fill="#44739e" viewBox="0 0 24 24"><path d="M10.882 3.547c-.244 0-.442.08-.442.179 0 0 .006.01.008.016l.715-.152a.88.88 0 0 0-.281-.043m0 .358c.245 0 .443-.08.443-.179 0-.01-.01-.018-.013-.027l-.737.155a.88.88 0 0 0 .307.051M6.01 19.751s.433.682.663.721a24.2 24.2 0 0 0 5.33.536 21.94 21.94 0 0 0 5.4-.561 7.1 7.1 0 0 1 .771-.693 30.66 30.66 0 0 1-6.1.587 30.38 30.38 0 0 1-6.064-.59m15.455-7.704c-.634 2.537-4.775 6.446-10.831 6.8-3.554.206-5.469-.479-6.953-1.987a12.6 12.6 0 0 0 1.664 2.3 20.82 20.82 0 0 0 5.816.737c5.9.041 7.683-.79 7.683-.79a9.277 9.277 0 0 0 2.621-7.06m-8.894 6.127c3.185-.61 7.924-3.111 8.826-6.873.415-1.731-2.9-8.951-10.172-8.27C3.813 3.726 1 12.076 3.262 15.781c1.879 3.076 6.307 2.968 9.309 2.393m.39-14.7.181-.032.228.282.493-.144.071.12-.472.138.274.339-.163.042-.273-.333-.546.159-.065-.12.518-.152Zm-2.749.251c0-.15.3-.272.67-.272a1.24 1.24 0 0 1 .493.091l.2-.042.089.121-.148.032a.14.14 0 0 1 .035.07c0 .15-.3.271-.671.271a1.19 1.19 0 0 1-.508-.1l-.248.052-.081-.122.2-.042c-.012-.018-.031-.037-.031-.058Z"/></svg>

<?xml version="1.0" encoding="UTF-8"?>
<svg width="24px" fill="#44739e" height="24px" viewBox="0 0 24 24" version="1.1" xmlns="http://www.w3.org/2000/svg" xmlns:xlink="http://www.w3.org/1999/xlink">
            <path d="m 10.882,3.547 c -0.244,0 -0.442,0.08 -0.442,0.179 0,0 0.006,0.01 0.008,0.016 L 11.163,3.59 A 0.883,0.883 0 0 0 10.882,3.547 Z m 0,0.358 c 0.245,0 0.443,-0.08 0.443,-0.179 0,-0.01 -0.01,-0.018 -0.013,-0.027 l -0.737,0.155 a 0.875,0.875 0 0 0 0.307,0.051 z M 6.01,19.751 c 0,0 0.433,0.682 0.663,0.721 a 24.2,24.2 0 0 0 5.33,0.536 21.938,21.938 0 0 0 5.4,-0.561 7.111,7.111 0 0 1 0.771,-0.693 30.655,30.655 0 0 1 -6.1,0.587 30.375,30.375 0 0 1 -6.064,-0.59 z m 15.455,-7.704 c -0.634,2.537 -4.775,6.446 -10.831,6.8 C 7.08,19.053 5.165,18.368 3.681,16.86 a 12.6,12.6 0 0 0 1.664,2.3 20.819,20.819 0 0 0 5.816,0.737 c 5.9,0.041 7.683,-0.79 7.683,-0.79 a 9.277,9.277 0 0 0 2.621,-7.06 z m -8.894,6.127 c 3.185,-0.61 7.924,-3.111 8.826,-6.873 C 21.812,9.57 18.497,2.35 11.225,3.031 3.813,3.726 1,12.076 3.262,15.781 c 1.879,3.076 6.307,2.968 9.309,2.393 z M 12.961,3.474 13.142,3.442 13.37,3.724 13.863,3.58 13.934,3.7 13.462,3.838 13.736,4.177 13.573,4.219 13.3,3.886 12.754,4.045 12.689,3.925 13.207,3.773 Z m -2.749,0.251 c 0,-0.15 0.3,-0.272 0.67,-0.272 a 1.236,1.236 0 0 1 0.493,0.091 l 0.2,-0.042 0.089,0.121 -0.148,0.032 a 0.141,0.141 0 0 1 0.035,0.07 c 0,0.15 -0.3,0.271 -0.671,0.271 a 1.188,1.188 0 0 1 -0.508,-0.1 l -0.248,0.052 -0.081,-0.122 0.2,-0.042 C 10.231,3.766 10.212,3.747 10.212,3.726 Z"/>

</svg>
